lib/flags/nr-nauru.svg

<svg xmlns="http://www.w3.org/2000/svg" fill="none" aria-hidden="true" viewBox="0 0 42 30"><g id="Country=NR - Nauru, Size=sm (36x24)" filter="url(#filter0_dd_91_26102)"><g clip-path="url(#clip0_91_26102)"><g id="flag"><g id="contents"><path id="background" fill="#2E42A5" fill-rule="evenodd" d="M3 2V26H39V2H3Z" clip-rule="evenodd"/><mask id="mask0_91_26102" width="36" height="24" x="3" y="2" maskUnits="userSpaceOnUse" style="mask-type:alpha"><path id="background_2" fill="white" fill-rule="evenodd" d="M3 2V26H39V2H3Z" clip-rule="evenodd"/></mask><g mask="url(#mask0_91_26102)"><path id="bottom" fill="#FECA00" fill-rule="evenodd" d="M3 10V14H39V10H3Z" clip-rule="evenodd"/><g id="mark"><path id="Star 19" fill="#F7FCFF" fill-rule="evenodd" d="M12.9333 21.5796L11.1951 23.5849L11.1149 21.0544L8.38261 21.7686L9.991 19.6794L7.30833 18.8296L9.991 17.9798L8.38261 15.8907L11.1149 16.6048L11.1951 14.0743L12.9333 16.0796L14.6716 14.0743L14.7518 16.6048L17.4841 15.8907L15.8757 17.9798L18.5583 18.8296L15.8757 19.6794L17.4841 21.7686L14.7518 21.0544L14.6716 23.5849L12.9333 21.5796Z" clip-rule="evenodd"/></g></g></g></g></g></g><defs><filter id="filter0_dd_91_26102" width="42" height="30" x="0" y="0" color-interpolation-filters="sRGB" filterUnits="userSpaceOnUse"><feFlood flood-opacity="0" result="BackgroundImageFix"/><feColorMatrix in="SourceAlpha" result="hardAlpha" values="0 0 0 0 0 0 0 0 0 0 0 0 0 0 0 0 0 0 127 0"/><feOffset dy="1"/><feGaussianBlur stdDeviation="1"/><feColorMatrix values="0 0 0 0 0.0627451 0 0 0 0 0.0941176 0 0 0 0 0.156863 0 0 0 0.06 0"/><feBlend in2="BackgroundImageFix" result="effect1_dropShadow_91_26102"/><feColorMatrix in="SourceAlpha" result="hardAlpha" values="0 0 0 0 0 0 0 0 0 0 0 0 0 0 0 0 0 0 127 0"/><feOffset dy="1"/><feGaussianBlur stdDeviation="1.5"/><feColorMatrix values="0 0 0 0 0.0627451 0 0 0 0 0.0941176 0 0 0 0 0.156863 0 0 0 0.1 0"/><feBlend in2="effect1_dropShadow_91_26102" result="effect2_dropShadow_91_26102"/><feBlend in="SourceGraphic" in2="effect2_dropShadow_91_26102" result="shape"/></filter><clipPath id="clip0_91_26102"><rect width="36" height="24" x="3" y="2" fill="white" rx="2"/></clipPath></defs></svg>

<svg xmlns="http://www.w3.org/2000/svg" fill="none" aria-hidden="true" viewBox="0 0 42 30"><g filter="url(#a)"><g clip-path="url(#b)"><path fill="#2E42A5" fill-rule="evenodd" d="M3 2v24h36V2H3Z" clip-rule="evenodd"/><mask id="c" width="36" height="24" x="3" y="2" maskUnits="userSpaceOnUse" style="mask-type:alpha"><path fill="#fff" fill-rule="evenodd" d="M3 2v24h36V2H3Z" clip-rule="evenodd"/></mask><g fill-rule="evenodd" clip-rule="evenodd" mask="url(#c)"><path fill="#FECA00" d="M3 10v4h36v-4H3Z"/><path fill="#F7FCFF" d="m12.933 21.58-1.738 2.005-.08-2.53-2.732.714 1.608-2.09-2.683-.85 2.683-.85-1.608-2.088 2.732.714.08-2.53 1.738 2.005 1.739-2.006.08 2.53 2.732-.713-1.608 2.089 2.682.85-2.682.85 1.608 2.089-2.732-.715-.08 2.53-1.739-2.004Z"/></g></g></g><defs><clipPath id="b"><rect width="36" height="24" x="3" y="2" fill="#fff" rx="2"/></clipPath><filter id="a" width="42" height="30" x="0" y="0" color-interpolation-filters="sRGB" filterUnits="userSpaceOnUse"><feFlood flood-opacity="0" result="BackgroundImageFix"/><feColorMatrix in="SourceAlpha" result="hardAlpha" values="0 0 0 0 0 0 0 0 0 0 0 0 0 0 0 0 0 0 127 0"/><feOffset dy="1"/><feGaussianBlur stdDeviation="1"/><feColorMatrix values="0 0 0 0 0.0627451 0 0 0 0 0.0941176 0 0 0 0 0.156863 0 0 0 0.06 0"/><feBlend in2="BackgroundImageFix" result="effect1_dropShadow_91_26102"/><feColorMatrix in="SourceAlpha" result="hardAlpha" values="0 0 0 0 0 0 0 0 0 0 0 0 0 0 0 0 0 0 127 0"/><feOffset dy="1"/><feGaussianBlur stdDeviation="1.5"/><feColorMatrix values="0 0 0 0 0.0627451 0 0 0 0 0.0941176 0 0 0 0 0.156863 0 0 0 0.1 0"/><feBlend in2="effect1_dropShadow_91_26102" result="effect2_dropShadow_91_26102"/><feBlend in="SourceGraphic" in2="effect2_dropShadow_91_26102" result="shape"/></filter></defs></svg>
